X:1880
T:Far Away
O:england
M:3/4
L:1/8
C:Peter Jung
S:Session at Nanny O'Brien's Pub Sept. 11, 1995
K:D
FA|:B3A Bd|cAF2FA|B3A Be|c4dc|B2BA Bd|cAF2de|fed cBA|1B3A FA:|2B3c de|
f2fe fa|ecA2de|f2fe fa|e4de|fdB ecA|dBG cAF|FAB2A2|1B3c de:|2B3A FA|


